assets/1. Faces/Flexed biceps/Medium-Dark/Color/flexed_biceps_color_medium-dark.svg

<svg width="100%" height="100%" viewBox="0 0 32 32" fill="none" xmlns="http://www.w3.org/2000/svg">
<g filter="url(#filter0_i_20020_4311)">
<path d="M7.96785 8.6875H6.32722L2.57753 19.875C0.843154 25.7812 3.97658 29.8438 8.79677 29.8438H21.6241C26.2078 29.7854 29.9057 26.0507 29.9057 21.4531C29.9057 16.8191 26.1491 13.0625 21.515 13.0625C17.8744 13.0625 14.7754 15.3811 13.614 18.6222C13.5801 18.7168 13.4911 18.7812 13.3906 18.7812V18.7812C13.3036 18.7812 13.2238 18.7329 13.1835 18.6558L7.96785 8.6875Z" fill="url(#paint0_radial_20020_4311)"/>
</g>
<path d="M7.96785 8.6875H6.32722L2.57753 19.875C0.843154 25.7812 3.97658 29.8438 8.79677 29.8438H21.6241C26.2078 29.7854 29.9057 26.0507 29.9057 21.4531C29.9057 16.8191 26.1491 13.0625 21.515 13.0625C17.8744 13.0625 14.7754 15.3811 13.614 18.6222C13.5801 18.7168 13.4911 18.7812 13.3906 18.7812V18.7812C13.3036 18.7812 13.2238 18.7329 13.1835 18.6558L7.96785 8.6875Z" fill="url(#paint1_linear_20020_4311)"/>
<path d="M7.96785 8.6875H6.32722L2.57753 19.875C0.843154 25.7812 3.97658 29.8438 8.79677 29.8438H21.6241C26.2078 29.7854 29.9057 26.0507 29.9057 21.4531C29.9057 16.8191 26.1491 13.0625 21.515 13.0625C17.8744 13.0625 14.7754 15.3811 13.614 18.6222C13.5801 18.7168 13.4911 18.7812 13.3906 18.7812V18.7812C13.3036 18.7812 13.2238 18.7329 13.1835 18.6558L7.96785 8.6875Z" fill="url(#paint2_radial_20020_4311)"/>
<path d="M7.96785 8.6875H6.32722L2.57753 19.875C0.843154 25.7812 3.97658 29.8438 8.79677 29.8438H21.6241C26.2078 29.7854 29.9057 26.0507 29.9057 21.4531C29.9057 16.8191 26.1491 13.0625 21.515 13.0625C17.8744 13.0625 14.7754 15.3811 13.614 18.6222C13.5801 18.7168 13.4911 18.7812 13.3906 18.7812V18.7812C13.3036 18.7812 13.2238 18.7329 13.1835 18.6558L7.96785 8.6875Z" fill="url(#paint3_radial_20020_4311)"/>
<path d="M7.96785 8.6875H6.32722L2.57753 19.875C0.843154 25.7812 3.97658 29.8438 8.79677 29.8438H21.6241C26.2078 29.7854 29.9057 26.0507 29.9057 21.4531C29.9057 16.8191 26.1491 13.0625 21.515 13.0625C17.8744 13.0625 14.7754 15.3811 13.614 18.6222C13.5801 18.7168 13.4911 18.7812 13.3906 18.7812V18.7812C13.3036 18.7812 13.2238 18.7329 13.1835 18.6558L7.96785 8.6875Z" fill="url(#paint4_radial_20020_4311)"/>
<path d="M7.96785 8.6875H6.32722L2.57753 19.875C0.843154 25.7812 3.97658 29.8438 8.79677 29.8438H21.6241C26.2078 29.7854 29.9057 26.0507 29.9057 21.4531C29.9057 16.8191 26.1491 13.0625 21.515 13.0625C17.8744 13.0625 14.7754 15.3811 13.614 18.6222C13.5801 18.7168 13.4911 18.7812 13.3906 18.7812V18.7812C13.3036 18.7812 13.2238 18.7329 13.1835 18.6558L7.96785 8.6875Z" fill="url(#paint5_radial_20020_4311)"/>
<path d="M7.3197 5.88278L6.29626 8.77731L6.79483 9.73964C7.14061 10.4262 7.84374 10.8593 8.61246 10.8593H13.5531C14.5694 10.8593 15.4845 10.2441 15.8682 9.30305L15.9553 9.08937C16.6681 7.34083 15.8654 5.3421 14.1412 4.57227L12.3666 3.82028C10.1947 3.01559 8.08442 3.86758 7.3197 5.88278Z" fill="url(#paint6_linear_20020_4311)"/>
<path d="M7.3197 5.88278L6.29626 8.77731L6.79483 9.73964C7.14061 10.4262 7.84374 10.8593 8.61246 10.8593H13.5531C14.5694 10.8593 15.4845 10.2441 15.8682 9.30305L15.9553 9.08937C16.6681 7.34083 15.8654 5.3421 14.1412 4.57227L12.3666 3.82028C10.1947 3.01559 8.08442 3.86758 7.3197 5.88278Z" fill="url(#paint7_radial_20020_4311)"/>
<path d="M7.3197 5.88278L6.29626 8.77731L6.79483 9.73964C7.14061 10.4262 7.84374 10.8593 8.61246 10.8593H13.5531C14.5694 10.8593 15.4845 10.2441 15.8682 9.30305L15.9553 9.08937C16.6681 7.34083 15.8654 5.3421 14.1412 4.57227L12.3666 3.82028C10.1947 3.01559 8.08442 3.86758 7.3197 5.88278Z" fill="url(#paint8_radial_20020_4311)"/>
<g filter="url(#filter1_f_20020_4311)">
<path d="M12.8698 19.2656L6.24475 27.9844H20.026L13.8966 19.2656H12.8698Z" fill="url(#paint9_linear_20020_4311)"/>
<path d="M12.8698 19.2656L6.24475 27.9844H20.026L13.8966 19.2656H12.8698Z" fill="url(#paint10_radial_20020_4311)"/>
<path d="M12.8698 19.2656L6.24475 27.9844H20.026L13.8966 19.2656H12.8698Z" fill="url(#paint11_radial_20020_4311)"/>
</g>
<g filter="url(#filter2_f_20020_4311)">
<path d="M11.4488 5.11145L13.8324 6.09583C14.234 6.24425 14.7413 6.77551 14.796 7.55676C14.8536 8.37867 14.2721 9.04069 13.9054 9.2677" stroke="url(#paint12_linear_20020_4311)" stroke-width="1.5" stroke-linecap="round"/>
</g>
<rect x="6.28064" y="7.74219" width="8.91406" height="4.07031" rx="2.03516" fill="url(#paint13_linear_20020_4311)"/>
<rect x="6.28064" y="7.74219" width="8.91406" height="4.07031" rx="2.03516" fill="url(#paint14_linear_20020_4311)"/>
<rect x="6.28064" y="7.74219" width="8.91406" height="4.07031" rx="2.03516" fill="url(#paint15_radial_20020_4311)"/>
<rect x="6.28064" y="7.74219" width="8.91406" height="4.07031" rx="2.03516" fill="url(#paint16_radial_20020_4311)"/>
<path d="M10.6531 5.85254L10.0004 7.77305L13.7507 7.77305L10.6531 5.85254Z" fill="url(#paint17_radial_20020_4311)"/>
<g filter="url(#filter3_f_20020_4311)">
<path d="M9.40564 5.67188L10.7963 6.71875V7.7795H8.88281L9.40564 5.67188Z" fill="url(#paint18_linear_20020_4311)"/>
</g>
<g filter="url(#filter4_f_20020_4311)">
<circle cx="24.0246" cy="19.9719" r="4.45772" fill="url(#paint19_radial_20020_4311)"/>
</g>
<g filter="url(#filter5_f_20020_4311)">
<path d="M8.51603 11.7374C8.01839 15.5066 6.31159 27.5964 6.3116 27.7671L12.2497 19.2758L8.51603 11.7374Z" fill="url(#paint20_radial_20020_4311)"/>
</g>
<defs>
<filter id="filter0_i_20020_4311" x="2.0943" y="7.1875" width="28.8113" height="22.6562" filterUnits="userSpaceOnUse" color-interpolation-filters="sRGB">
<feFlood flood-opacity="0" result="BackgroundImageFix"/>
<feBlend mode="normal" in="SourceGraphic" in2="BackgroundImageFix" result="shape"/>
<feColorMatrix in="SourceAlpha" type="matrix" values="0 0 0 0 0 0 0 0 0 0 0 0 0 0 0 0 0 0 127 0" result="hardAlpha"/>
<feOffset dx="1" dy="-1.5"/>
<feGaussianBlur stdDeviation="1.5"/>
<feComposite in2="hardAlpha" operator="arithmetic" k2="-1" k3="1"/>
<feColorMatrix type="matrix" values="0 0 0 0 0.427451 0 0 0 0 0.290196 0 0 0 0 0.254902 0 0 0 1 0"/>
<feBlend mode="normal" in2="shape" result="effect1_innerShadow_20020_4311"/>
</filter>
<filter id="filter1_f_20020_4311" x="5.24475" y="18.2656" width="15.7812" height="10.7188" filterUnits="userSpaceOnUse" color-interpolation-filters="sRGB">
<feFlood flood-opacity="0" result="BackgroundImageFix"/>
<feBlend mode="normal" in="SourceGraphic" in2="BackgroundImageFix" result="shape"/>
<feGaussianBlur stdDeviation="0.5" result="effect1_foregroundBlur_20020_4311"/>
</filter>
<filter id="filter2_f_20020_4311" x="9.69861" y="3.36121" width="6.85138" height="7.65662" filterUnits="userSpaceOnUse" color-interpolation-filters="sRGB">
<feFlood flood-opacity="0" result="BackgroundImageFix"/>
<feBlend mode="normal" in="SourceGraphic" in2="BackgroundImageFix" result="shape"/>
<feGaussianBlur stdDeviation="0.5" result="effect1_foregroundBlur_20020_4311"/>
</filter>
<filter id="filter3_f_20020_4311" x="8.38281" y="5.17188" width="2.91345" height="3.10767" filterUnits="userSpaceOnUse" color-interpolation-filters="sRGB">
<feFlood flood-opacity="0" result="BackgroundImageFix"/>
<feBlend mode="normal" in="SourceGraphic" in2="BackgroundImageFix" result="shape"/>
<feGaussianBlur stdDeviation="0.25" result="effect1_foregroundBlur_20020_4311"/>
</filter>
<filter id="filter4_f_20020_4311" x="17.5669" y="13.5142" width="12.9154" height="12.9154" filterUnits="userSpaceOnUse" color-interpolation-filters="sRGB">
<feFlood flood-opacity="0" result="BackgroundImageFix"/>
<feBlend mode="normal" in="SourceGraphic" in2="BackgroundImageFix" result="shape"/>
<feGaussianBlur stdDeviation="1" result="effect1_foregroundBlur_20020_4311"/>
</filter>
<filter id="filter5_f_20020_4311" x="4.81158" y="10.2374" width="8.93811" height="19.0297" filterUnits="userSpaceOnUse" color-interpolation-filters="sRGB">
<feFlood flood-opacity="0" result="BackgroundImageFix"/>
<feBlend mode="normal" in="SourceGraphic" in2="BackgroundImageFix" result="shape"/>
<feGaussianBlur stdDeviation="0.75" result="effect1_foregroundBlur_20020_4311"/>
</filter>
<radialGradient id="paint0_radial_20020_4311" cx="0" cy="0" r="1" gradientUnits="userSpaceOnUse" gradientTransform="translate(27.018 20.1872) rotate(155.821) scale(9.25352 8.89268)">
<stop stop-color="#A07460"/>
<stop offset="1" stop-color="#794E46"/>
</radialGradient>
<linearGradient id="paint1_linear_20020_4311" x1="16" y1="31.816" x2="16" y2="23.5553" gradientUnits="userSpaceOnUse">
<stop stop-color="#7E4372"/>
<stop offset="1" stop-color="#7E4372" stop-opacity="0"/>
</linearGradient>
<radialGradient id="paint2_radial_20020_4311" cx="0" cy="0" r="1" gradientUnits="userSpaceOnUse" gradientTransform="translate(13.4681 18.5074) rotate(-90) scale(2.59496 1.38168)">
<stop stop-color="#5F453E"/>
<stop offset="1" stop-color="#5F453E" stop-opacity="0"/>
</radialGradient>
<radialGradient id="paint3_radial_20020_4311" cx="0" cy="0" r="1" gradientUnits="userSpaceOnUse" gradientTransform="translate(8.9375 11.5313) rotate(171.434) scale(1.14524 3.43249)">
<stop stop-color="#613A34"/>
<stop offset="1" stop-color="#613A34" stop-opacity="0"/>
</radialGradient>
<radialGradient id="paint4_radial_20020_4311" cx="0" cy="0" r="1" gradientUnits="userSpaceOnUse" gradientTransform="translate(17.6902 23.1871) rotate(165.675) scale(16.0964 22.7416)">
<stop offset="0.84569" stop-color="#87645C" stop-opacity="0"/>
<stop offset="0.969063" stop-color="#87645C"/>
</radialGradient>
<radialGradient id="paint5_radial_20020_4311" cx="0" cy="0" r="1" gradientUnits="userSpaceOnUse" gradientTransform="translate(13.0937 10.9062) rotate(109.983) scale(10.2416 3.16316)">
<stop stop-color="#A07B6D"/>
<stop offset="1" stop-color="#A07B6D" stop-opacity="0"/>
</radialGradient>
<linearGradient id="paint6_linear_20020_4311" x1="8.40564" y1="9.62496" x2="17.3346" y2="7.1895" gradientUnits="userSpaceOnUse">
<stop stop-color="#785349"/>
<stop offset="1" stop-color="#97705F"/>
</linearGradient>
<radialGradient id="paint7_radial_20020_4311" cx="0" cy="0" r="1" gradientUnits="userSpaceOnUse" gradientTransform="translate(10.0931 9.71871) rotate(-30.1963) scale(7.083 8.73249)">
<stop offset="0.789681" stop-color="#9F7A69" stop-opacity="0"/>
<stop offset="1" stop-color="#9F7A69"/>
</radialGradient>
<radialGradient id="paint8_radial_20020_4311" cx="0" cy="0" r="1" gradientUnits="userSpaceOnUse" gradientTransform="translate(11.464 8.39057) rotate(-122.735) scale(5.48766 7.79014)">
<stop offset="0.742479" stop-color="#75564A" stop-opacity="0"/>
<stop offset="1" stop-color="#75564A"/>
</radialGradient>
<linearGradient id="paint9_linear_20020_4311" x1="13.1198" y1="19.9869" x2="13.1198" y2="29.232" gradientUnits="userSpaceOnUse">
<stop stop-color="#7D584A"/>
<stop offset="1" stop-color="#7D584A" stop-opacity="0"/>
</linearGradient>
<radialGradient id="paint10_radial_20020_4311" cx="0" cy="0" r="1" gradientUnits="userSpaceOnUse" gradientTransform="translate(10.4166 20.7344) rotate(33.9174) scale(2.18415 4.33652)">
<stop stop-color="#9B766C"/>
<stop offset="1" stop-color="#9B766C" stop-opacity="0"/>
</radialGradient>
<radialGradient id="paint11_radial_20020_4311" cx="0" cy="0" r="1" gradientUnits="userSpaceOnUse" gradientTransform="translate(16.6136 21.9633) rotate(143.906) scale(1.94536 8.27452)">
<stop offset="0.23109" stop-color="#623C31"/>
<stop offset="1" stop-color="#623C31" stop-opacity="0"/>
</radialGradient>
<linearGradient id="paint12_linear_20020_4311" x1="14.812" y1="7.56053" x2="11.0035" y2="5.88415" gradientUnits="userSpaceOnUse">
<stop stop-color="#A77E71"/>
<stop offset="1" stop-color="#A77E71" stop-opacity="0"/>
</linearGradient>
<linearGradient id="paint13_linear_20020_4311" x1="8.68689" y1="10.25" x2="14.4369" y2="10.25" gradientUnits="userSpaceOnUse">
<stop stop-color="#775248"/>
<stop offset="1" stop-color="#916B5A"/>
</linearGradient>
<linearGradient id="paint14_linear_20020_4311" x1="10.7377" y1="12.4673" x2="10.7377" y2="9.4693" gradientUnits="userSpaceOnUse">
<stop stop-color="#653840"/>
<stop offset="1" stop-color="#653840" stop-opacity="0"/>
</linearGradient>
<radialGradient id="paint15_radial_20020_4311" cx="0" cy="0" r="1" gradientUnits="userSpaceOnUse" gradientTransform="translate(13.8431 9.53125) rotate(137.353) scale(1.61445 1.40902)">
<stop stop-color="#A07D72"/>
<stop offset="1" stop-color="#A07D72" stop-opacity="0"/>
</radialGradient>
<radialGradient id="paint16_radial_20020_4311" cx="0" cy="0" r="1" gradientUnits="userSpaceOnUse" gradientTransform="translate(15.1947 9.77735) rotate(180) scale(8.91406 7.03626)">
<stop offset="0.90282" stop-color="#7D5952" stop-opacity="0"/>
<stop offset="1" stop-color="#7D5952"/>
</radialGradient>
<radialGradient id="paint17_radial_20020_4311" cx="0" cy="0" r="1" gradientUnits="userSpaceOnUse" gradientTransform="translate(11.4922 7.92456) rotate(-90) scale(1.21213 1.47114)">
<stop stop-color="#391A13"/>
<stop offset="1" stop-color="#5A3227" stop-opacity="0"/>
</radialGradient>
<linearGradient id="paint18_linear_20020_4311" x1="10.39" y1="6.75" x2="9.85631" y2="7.98068" gradientUnits="userSpaceOnUse">
<stop stop-color="#8D6F67"/>
<stop offset="1" stop-color="#8D6F67" stop-opacity="0"/>
</linearGradient>
<radialGradient id="paint19_radial_20020_4311" cx="0" cy="0" r="1" gradientUnits="userSpaceOnUse" gradientTransform="translate(26.9274 18.4169) rotate(149.859) scale(7.43234 2.95435)">
<stop stop-color="#A88174"/>
<stop offset="1" stop-color="#A88174" stop-opacity="0"/>
</radialGradient>
<radialGradient id="paint20_radial_20020_4311" cx="0" cy="0" r="1" gradientUnits="userSpaceOnUse" gradientTransform="translate(11.1475 21.6937) rotate(-102) scale(15.05 5.24944)">
<stop stop-color="#9E7970"/>
<stop offset="1" stop-color="#9E7970" stop-opacity="0"/>
</radialGradient>
</defs>
</svg>

<svg width="100%" height="100%" viewBox="0 0 32 32" xmlns="http://www.w3.org/2000/svg"><g filter="url(#a)"><path fill="url(#b)" d="M7.968 8.688h-1.64l-3.75 11.187c-1.735 5.906 1.399 9.969 6.219 9.969h12.827a8.391 8.391 0 1 0-8.01-11.222.24.24 0 0 1-.223.16.23.23 0 0 1-.207-.126z"/></g><path fill="url(#c)" d="M7.968 8.688h-1.64l-3.75 11.187c-1.735 5.906 1.399 9.969 6.219 9.969h12.827a8.391 8.391 0 1 0-8.01-11.222.24.24 0 0 1-.223.16.23.23 0 0 1-.207-.126z"/><path fill="url(#d)" d="M7.968 8.688h-1.64l-3.75 11.187c-1.735 5.906 1.399 9.969 6.219 9.969h12.827a8.391 8.391 0 1 0-8.01-11.222.24.24 0 0 1-.223.16.23.23 0 0 1-.207-.126z"/><path fill="url(#e)" d="M7.968 8.688h-1.64l-3.75 11.187c-1.735 5.906 1.399 9.969 6.219 9.969h12.827a8.391 8.391 0 1 0-8.01-11.222.24.24 0 0 1-.223.16.23.23 0 0 1-.207-.126z"/><path fill="url(#f)" d="M7.968 8.688h-1.64l-3.75 11.187c-1.735 5.906 1.399 9.969 6.219 9.969h12.827a8.391 8.391 0 1 0-8.01-11.222.24.24 0 0 1-.223.16.23.23 0 0 1-.207-.126z"/><path fill="url(#g)" d="M7.968 8.688h-1.64l-3.75 11.187c-1.735 5.906 1.399 9.969 6.219 9.969h12.827a8.391 8.391 0 1 0-8.01-11.222.24.24 0 0 1-.223.16.23.23 0 0 1-.207-.126z"/><path fill="url(#h)" d="M7.32 5.883 6.296 8.777l.499.963a2.04 2.04 0 0 0 1.817 1.12h4.941a2.5 2.5 0 0 0 2.315-1.557l.087-.214a3.5 3.5 0 0 0-1.814-4.517l-1.774-.752c-2.172-.804-4.283.048-5.047 2.063"/><path fill="url(#i)" d="M7.32 5.883 6.296 8.777l.499.963a2.04 2.04 0 0 0 1.817 1.12h4.941a2.5 2.5 0 0 0 2.315-1.557l.087-.214a3.5 3.5 0 0 0-1.814-4.517l-1.774-.752c-2.172-.804-4.283.048-5.047 2.063"/><path fill="url(#j)" d="M7.32 5.883 6.296 8.777l.499.963a2.04 2.04 0 0 0 1.817 1.12h4.941a2.5 2.5 0 0 0 2.315-1.557l.087-.214a3.5 3.5 0 0 0-1.814-4.517l-1.774-.752c-2.172-.804-4.283.048-5.047 2.063"/><g filter="url(#k)"><path fill="url(#l)" d="m12.87 19.266-6.625 8.718h13.781l-6.13-8.718z"/><path fill="url(#m)" d="m12.87 19.266-6.625 8.718h13.781l-6.13-8.718z"/><path fill="url(#n)" d="m12.87 19.266-6.625 8.718h13.781l-6.13-8.718z"/></g><g filter="url(#o)"><path stroke="url(#p)" stroke-linecap="round" stroke-width="1.5" d="m11.449 5.111 2.383.985c.402.148.91.68.964 1.46.058.823-.524 1.485-.89 1.712"/></g><rect width="8.914" height="4.07" x="6.281" y="7.742" fill="url(#q)" rx="2.035"/><rect width="8.914" height="4.07" x="6.281" y="7.742" fill="url(#r)" rx="2.035"/><rect width="8.914" height="4.07" x="6.281" y="7.742" fill="url(#s)" rx="2.035"/><rect width="8.914" height="4.07" x="6.281" y="7.742" fill="url(#t)" rx="2.035"/><path fill="url(#u)" d="M10.653 5.853 10 7.773h3.75z"/><g filter="url(#v)"><path fill="url(#w)" d="m9.406 5.672 1.39 1.047v1.06H8.883z"/></g><g filter="url(#x)"><circle cx="24.025" cy="19.972" r="4.458" fill="url(#y)"/></g><g filter="url(#z)"><path fill="url(#A)" d="M8.516 11.737c-.498 3.77-2.204 15.86-2.204 16.03l5.938-8.491z"/></g><defs><radialGradient id="b" cx="0" cy="0" r="1" gradientTransform="matrix(-8.44171 3.79014 -3.64234 -8.11253 27.018 20.187)" gradientUnits="userSpaceOnUse"><stop stop-color="#A07460"/><stop offset="1" stop-color="#794E46"/></radialGradient><radialGradient id="d" cx="0" cy="0" r="1" gradientTransform="matrix(0 -2.59496 1.38168 0 13.468 18.507)" gradientUnits="userSpaceOnUse"><stop stop-color="#5F453E"/><stop offset="1" stop-color="#5F453E" stop-opacity="0"/></radialGradient><radialGradient id="e" cx="0" cy="0" r="1" gradientTransform="matrix(-1.13246 .17058 -.51126 -3.3942 8.938 11.531)" gradientUnits="userSpaceOnUse"><stop stop-color="#613A34"/><stop offset="1" stop-color="#613A34" stop-opacity="0"/></radialGradient><radialGradient id="f" cx="0" cy="0" r="1" gradientTransform="rotate(165.675 7.388 12.705)scale(16.0964 22.7416)" gradientUnits="userSpaceOnUse"><stop offset=".846" stop-color="#87645C" stop-opacity="0"/><stop offset=".969" stop-color="#87645C"/></radialGradient><radialGradient id="g" cx="0" cy="0" r="1" gradientTransform="rotate(109.983 2.727 10.039)scale(10.2416 3.16316)" gradientUnits="userSpaceOnUse"><stop stop-color="#A07B6D"/><stop offset="1" stop-color="#A07B6D" stop-opacity="0"/></radialGradient><radialGradient id="i" cx="0" cy="0" r="1" gradientTransform="rotate(-30.196 23.058 -13.846)scale(7.083 8.73249)" gradientUnits="userSpaceOnUse"><stop offset=".79" stop-color="#9F7A69" stop-opacity="0"/><stop offset="1" stop-color="#9F7A69"/></radialGradient><radialGradient id="j" cx="0" cy="0" r="1" gradientTransform="rotate(-122.735 8.022 1.066)scale(5.48766 7.79014)" gradientUnits="userSpaceOnUse"><stop offset=".742" stop-color="#75564A" stop-opacity="0"/><stop offset="1" stop-color="#75564A"/></radialGradient><radialGradient id="m" cx="0" cy="0" r="1" gradientTransform="rotate(33.917 -28.789 27.447)scale(2.18415 4.33652)" gradientUnits="userSpaceOnUse"><stop stop-color="#9B766C"/><stop offset="1" stop-color="#9B766C" stop-opacity="0"/></radialGradient><radialGradient id="n" cx="0" cy="0" r="1" gradientTransform="rotate(143.906 4.729 13.688)scale(1.94536 8.27452)" gradientUnits="userSpaceOnUse"><stop offset=".231" stop-color="#623C31"/><stop offset="1" stop-color="#623C31" stop-opacity="0"/></radialGradient><radialGradient id="s" cx="0" cy="0" r="1" gradientTransform="rotate(137.353 5.061 7.467)scale(1.61445 1.40902)" gradientUnits="userSpaceOnUse"><stop stop-color="#A07D72"/><stop offset="1" stop-color="#A07D72" stop-opacity="0"/></radialGradient><radialGradient id="t" cx="0" cy="0" r="1" gradientTransform="matrix(-8.91406 0 0 -7.03626 15.195 9.777)" gradientUnits="userSpaceOnUse"><stop offset=".903" stop-color="#7D5952" stop-opacity="0"/><stop offset="1" stop-color="#7D5952"/></radialGradient><radialGradient id="u" cx="0" cy="0" r="1" gradientTransform="matrix(0 -1.21213 1.47114 0 11.492 7.925)" gradientUnits="userSpaceOnUse"><stop stop-color="#391A13"/><stop offset="1" stop-color="#5A3227" stop-opacity="0"/></radialGradient><radialGradient id="y" cx="0" cy="0" r="1" gradientTransform="matrix(-6.42743 3.732 -1.48347 -2.5549 26.927 18.417)" gradientUnits="userSpaceOnUse"><stop stop-color="#A88174"/><stop offset="1" stop-color="#A88174" stop-opacity="0"/></radialGradient><radialGradient id="A" cx="0" cy="0" r="1" gradientTransform="rotate(-102 14.357 6.333)scale(15.05 5.24944)" gradientUnits="userSpaceOnUse"><stop stop-color="#9E7970"/><stop offset="1" stop-color="#9E7970" stop-opacity="0"/></radialGradient><linearGradient id="c" x1="16" x2="16" y1="31.816" y2="23.555" gradientUnits="userSpaceOnUse"><stop stop-color="#7E4372"/><stop offset="1" stop-color="#7E4372" stop-opacity="0"/></linearGradient><linearGradient id="h" x1="8.406" x2="17.335" y1="9.625" y2="7.189" gradientUnits="userSpaceOnUse"><stop stop-color="#785349"/><stop offset="1" stop-color="#97705F"/></linearGradient><linearGradient id="l" x1="13.12" x2="13.12" y1="19.987" y2="29.232" gradientUnits="userSpaceOnUse"><stop stop-color="#7D584A"/><stop offset="1" stop-color="#7D584A" stop-opacity="0"/></linearGradient><linearGradient id="p" x1="14.812" x2="11.004" y1="7.561" y2="5.884" gradientUnits="userSpaceOnUse"><stop stop-color="#A77E71"/><stop offset="1" stop-color="#A77E71" stop-opacity="0"/></linearGradient><linearGradient id="q" x1="8.687" x2="14.437" y1="10.25" y2="10.25" gradientUnits="userSpaceOnUse"><stop stop-color="#775248"/><stop offset="1" stop-color="#916B5A"/></linearGradient><linearGradient id="r" x1="10.738" x2="10.738" y1="12.467" y2="9.469" gradientUnits="userSpaceOnUse"><stop stop-color="#653840"/><stop offset="1" stop-color="#653840" stop-opacity="0"/></linearGradient><linearGradient id="w" x1="10.39" x2="9.856" y1="6.75" y2="7.981" gradientUnits="userSpaceOnUse"><stop stop-color="#8D6F67"/><stop offset="1" stop-color="#8D6F67" stop-opacity="0"/></linearGradient><filter id="a" width="28.811" height="22.656" x="2.094" y="7.188" color-interpolation-filters="sRGB" filterUnits="userSpaceOnUse"><feFlood flood-opacity="0" result="BackgroundImageFix"/><feBlend in="SourceGraphic" in2="BackgroundImageFix" result="shape"/><feColorMatrix in="SourceAlpha" result="hardAlpha" values="0 0 0 0 0 0 0 0 0 0 0 0 0 0 0 0 0 0 127 0"/><feOffset dx="1" dy="-1.5"/><feGaussianBlur stdDeviation="1.5"/><feComposite in2="hardAlpha" k2="-1" k3="1" operator="arithmetic"/><feColorMatrix values="0 0 0 0 0.427451 0 0 0 0 0.290196 0 0 0 0 0.254902 0 0 0 1 0"/><feBlend in2="shape" result="effect1_innerShadow_20020_4311"/></filter><filter id="k" width="15.781" height="10.719" x="5.245" y="18.266" color-interpolation-filters="sRGB" filterUnits="userSpaceOnUse"><feFlood flood-opacity="0" result="BackgroundImageFix"/><feBlend in="SourceGraphic" in2="BackgroundImageFix" result="shape"/><feGaussianBlur result="effect1_foregroundBlur_20020_4311" stdDeviation=".5"/></filter><filter id="o" width="6.851" height="7.657" x="9.699" y="3.361" color-interpolation-filters="sRGB" filterUnits="userSpaceOnUse"><feFlood flood-opacity="0" result="BackgroundImageFix"/><feBlend in="SourceGraphic" in2="BackgroundImageFix" result="shape"/><feGaussianBlur result="effect1_foregroundBlur_20020_4311" stdDeviation=".5"/></filter><filter id="v" width="2.913" height="3.108" x="8.383" y="5.172" color-interpolation-filters="sRGB" filterUnits="userSpaceOnUse"><feFlood flood-opacity="0" result="BackgroundImageFix"/><feBlend in="SourceGraphic" in2="BackgroundImageFix" result="shape"/><feGaussianBlur result="effect1_foregroundBlur_20020_4311" stdDeviation=".25"/></filter><filter id="x" width="12.915" height="12.915" x="17.567" y="13.514" color-interpolation-filters="sRGB" filterUnits="userSpaceOnUse"><feFlood flood-opacity="0" result="BackgroundImageFix"/><feBlend in="SourceGraphic" in2="BackgroundImageFix" result="shape"/><feGaussianBlur result="effect1_foregroundBlur_20020_4311" stdDeviation="1"/></filter><filter id="z" width="8.938" height="19.03" x="4.812" y="10.237" color-interpolation-filters="sRGB" filterUnits="userSpaceOnUse"><feFlood flood-opacity="0" result="BackgroundImageFix"/><feBlend in="SourceGraphic" in2="BackgroundImageFix" result="shape"/><feGaussianBlur result="effect1_foregroundBlur_20020_4311" stdDeviation=".75"/></filter></defs></svg>
